src/assets/icons/egg-basket.svg

<svg width="218" height="175" viewBox="0 0 218 175" fill="none" xmlns="http://www.w3.org/2000/svg">
<circle cx="112" cy="89" r="86" fill="#F7F7F6"/>
<circle cx="176.902" cy="40.9019" r="29.6988" transform="rotate(-31.8665 176.902 40.9019)" fill="#F0C62F"/>
<circle cx="9.5" cy="108.5" r="9.5" fill="#4CAF50"/>
<path d="M69.3945 114.893L72.3242 131.006H92.8318L93.9305 126.611H102.183L103.281 131.006H123.789L124.888 126.611H133.14L134.239 131.006H145.957H154.746L157.676 114.893M156.287 109.033C156.287 95.5238 149.907 84.5719 142.037 84.5719C134.166 84.5719 127.786 95.5236 127.786 109.033C127.786 95.5238 121.406 84.5719 113.535 84.5719C105.665 84.5719 99.2844 95.5236 99.2844 109.033C99.2844 95.5238 92.9041 84.5719 85.0336 84.5719C77.1631 84.5719 70.7828 95.5236 70.7828 109.033M65 109.033H162.07V114.893H65V109.033Z" stroke="#949894" stroke-width="2.5" stroke-miterlimit="22.9256"/>
<path d="M113.535 84.5721C113.535 74.8639 119.915 66.9937 127.786 66.9937C135.656 66.9937 142.037 74.8637 142.037 84.5719" stroke="#949894" stroke-width="2.5" stroke-miterlimit="22.9256"/>
<line x1="81.402" y1="76.7727" x2="67.8596" y2="75.2421" stroke="#949894" stroke-width="2.5"/>
<line x1="85.2531" y1="67.0837" x2="75.1601" y2="57.9257" stroke="#949894" stroke-width="2.5"/>
<line x1="96.6602" y1="62.6286" x2="96.6602" y2="49" stroke="#949894" stroke-width="2.5"/>
<line y1="-1.25" x2="13.6286" y2="-1.25" transform="matrix(-0.740581 0.671967 0.671967 0.740581 119.093 59)" stroke="#949894" stroke-width="2.5"/>
</svg>

<svg viewBox="0 0 218 175" fill="none" xmlns="http://www.w3.org/2000/svg">
    <circle cx="112" cy="89" r="86" fill="#F7F7F6" />
    <circle cx="176.902" cy="40.902" r="29.699" transform="rotate(-31.866 176.902 40.902)" fill="#F0C62F" />
    <circle cx="9.5" cy="108.5" r="9.5" fill="#4CAF50" />
    <path
        d="M69.394 114.893l2.93 16.113h20.508l1.099-4.395h8.252l1.098 4.395h20.508l1.099-4.395h8.252l1.099 4.395h20.507l2.93-16.113m-1.389-5.86c0-13.51-6.38-24.461-14.25-24.461-7.871 0-14.251 10.952-14.251 24.461 0-13.51-6.38-24.461-14.251-24.461-7.87 0-14.25 10.952-14.25 24.461 0-13.51-6.38-24.461-14.251-24.461-7.87 0-14.251 10.952-14.251 24.461m-5.783 0h97.07v5.86H65v-5.86zm48.535-24.461c0-9.708 6.38-17.578 14.251-17.578 7.87 0 14.251 7.87 14.251 17.578"
        stroke="#949894" stroke-width="2.5" stroke-miterlimit="22.926" />
    <path stroke="#949894" stroke-width="2.5"
        d="M81.402 76.773L67.86 75.242m17.393-8.158L75.16 57.926m21.5 4.703V49m21.593 9.074l-10.093 9.159" />
</svg>
